X: 2739
T: Banks Of The Allan, The
R: jig
M: 6/8
K: Dmajor
FGF FED|FAA A2d|Bdd Add|Bdd Add|FGF FED|FAA A2d|BdB AFD|EDD D3:|
fdf fed|faa a2g|fgf fed|gbb b2a|fga efg|def fed|BdB AFD|EDD D3:|

